static/img/feathers-isotype.svg

<svg height="216" viewBox="0 0 216 216" width="216" xmlns="http://www.w3.org/2000/svg"><path d="m107.78 7.74c55.29 0 100.12 44.82 100.12 100.12s-44.83 100.12-100.12 100.12-100.12-44.82-100.12-100.12 44.83-100.12 100.12-100.12m0-7.66c-59.43 0-107.78 48.35-107.78 107.78s48.35 107.78 107.78 107.78 107.78-48.35 107.78-107.78-48.35-107.78-107.78-107.78m17.54 21.49c-8.78-1.6-30.02 30.66-37.04 50.3-.53 1.49-1.76 6.95-1.76 8.38 0 0 5.5 11.83 7.03 14.61-2.55-1.33-7.85-11.58-7.85-11.58-2.55 4.87-5 27.23-4.21 31.38 0 0 5.69 8.47 7.9 10.59-3.03-1.01-8.14-7.88-8.14-7.88-.96 2.95-.77 9.1-.32 11.18 3.83 5.59 8.94 6.23 8.94 6.23s-5.59 55.73 2.87 59.88c5.27-1.12 6.55-62.27 6.55-62.27s6.39.48 7.82-1.12c3.25-2.24 10.8-25.45 10.91-28.8 0 0-8.77 1.64-13.04 3.3 3.22-3.2 13.51-5.35 13.51-5.35 2.79-3.35 8.67-26.14 9.26-33.17.15-1.76.49-3.92.23-7.07 0 0-8.37 1.83-10.12 1.2 1.77-.2 10.33-3.49 10.33-3.49 1.52-13.64 1.99-35.43-2.87-36.32zm-30.63 144.57c-.67 16.42-1.09 21.05-1.78 24.92-.32.72-.64.84-.96-.08-2.93-13.47-2.71-114.88 30.66-161.03-19.41 35.45-28.24 103.46-27.92 136.19z" transform="translate(0 -.08)"/></svg>

<?xml version="1.0" encoding="UTF-8"?>
<svg width="216px" height="216px" viewBox="0 0 216 216" version="1.1" xmlns="http://www.w3.org/2000/svg" xmlns:xlink="http://www.w3.org/1999/xlink">
    <title>isotype</title>
    <g id="Page-1" stroke="none" stroke-width="1" fill="none" fill-rule="evenodd">
        <g id="Feathers-logo-2021-01" transform="translate(0.000000, -0.080000)" fill="#000000" fill-rule="nonzero">
            <path d="M107.78,7.74 C163.07,7.74 207.9,52.56 207.9,107.86 C207.9,163.16 163.07,207.98 107.78,207.98 C52.49,207.98 7.66,163.16 7.66,107.86 C7.66,52.56 52.49,7.74 107.78,7.74 M107.78,0.08 C48.35,0.08 0,48.43 0,107.86 C0,167.29 48.35,215.64 107.78,215.64 C167.21,215.64 215.56,167.29 215.56,107.86 C215.56,48.43 167.21,0.08 107.78,0.08 M125.32,21.57 C116.54,19.97 95.3,52.23 88.28,71.87 C87.75,73.36 86.52,78.82 86.52,80.25 C86.52,80.25 92.02,92.08 93.55,94.86 C91,93.53 85.7,83.28 85.7,83.28 C83.15,88.15 80.7,110.51 81.49,114.66 C81.49,114.66 87.18,123.13 89.39,125.25 C86.36,124.24 81.25,117.37 81.25,117.37 C80.29,120.32 80.48,126.47 80.93,128.55 C84.76,134.14 89.87,134.78 89.87,134.78 C89.87,134.78 84.28,190.51 92.74,194.66 C98.01,193.54 99.29,132.39 99.29,132.39 C99.29,132.39 105.68,132.87 107.11,131.27 C110.36,129.03 117.91,105.82 118.02,102.47 C118.02,102.47 109.25,104.11 104.98,105.77 C108.2,102.57 118.49,100.42 118.49,100.42 C121.28,97.07 127.16,74.28 127.75,67.25 C127.9,65.49 128.24,63.33 127.98,60.18 C127.98,60.18 119.61,62.01 117.86,61.38 C119.63,61.18 128.19,57.89 128.19,57.89 C129.71,44.25 130.18,22.46 125.32,21.57 L125.32,21.57 Z M94.69,166.14 C94.02,182.56 93.6,187.19 92.91,191.06 C92.59,191.78 92.27,191.9 91.95,190.98 C89.02,177.51 89.24,76.1 122.61,29.95 C103.2,65.4 94.37,133.41 94.69,166.14 L94.69,166.14 Z" id="isotype"></path>
        </g>
    </g>
</svg>
